X:1
T:Walzer eines Wahnsinnigen
T:Walzer eines Wahnsinnigen
T:Anonymous
T:by IMSLP - Public Domain
T:by IMSLP - Public Domain
C:Anonymous
Z:by IMSLP - Public Domain
%%score { ( 1 3 ) | 2 }
L:1/8
Q:1/4=55
M:3/4
K:Eb
V:1 treble nm="Piano" snm="Pno."
V:3 treble 
V:2 bass 
V:1
!pp!"^N°1.""^Lento" (b=ab | c'b) g2 e2 | (e2 d) (b=ab | c'b) _a2 e2 | e2 z (b=ab | c'b) g2 e2 | %6
w: ||||||
 (e2 d) (b=ab | c'b) _a2 e2 | [Ge]2 z ::!f! (e'd'e' | =bc'ae'd'c') | (!>!c'_b)(gB)(gB) | %12
w: ||||||
 (!>!c'b)(aB)(aB) | !>!c'bg(e'd'e' | =bc'ae'd'c') | (!>!c'_b)(gB)(gB) | !>!c'baB [Ad]B | [Ge]2 z :: %18
w: ||||||
!p! ([_d_d'][cc'][_c_c']) | ([_c_c'][Bb])(gB)(eB) | e2 d ([_d_d'][cc'][_c_c']) | %21
w: |||
 ([_c_c'][Bb])(aB)(dB) | e2 z ([ee'][dd'][cc']) | ([_c_c'][Bb])(a"_cresc."B)(dB) | %24
w: |||
 e2 d!f! .[aa'].[gg'].[ff'] |"_dim." .[ee'].[dd']{/c}(c'baf |!p! e2) z ::!ff! .G,.A,.=A, | %28
w: ||||
 .B, ([eg][df][ce][Bd][Ac]) | ([Ac]{dc}BGBGB) | ([Ac]{dc}BGBGB) | [Ac]{dc}BG !^!G,!^!A,!^!=A, | %32
w: ||||
 !^!B,!p! ([eg][df][ce][Bd][Ac]) | ([Ac]{dc}BGBGB) | ([Ac]{dc}BGBGB | E2) z ::!mf! (B=AB) | %37
w: |||||
 (_ABdBfB) | (GBeBgB) | (!>!B[gb])([fa]B)([df]B) | ([ac']B[gb]B[eg]B) | (=ABdBfB) | (GBeBgB) | %43
w: ||||||
 (!>!B[gb][fa]B[df]B) | e2 z :|[K:F][M:3/4]!p![Q:1/4=92]"^Andante""^N° 2." ccc | %46
w: |||
{Ac} [Aca]2 z .[ca].[Bg].[Ge] | [Af]2 z ([Af][Ge][Af] |{G)B} [GBg]2 z [cc'][cc'][cc'] | %49
w: |||
 [Aa]2 z ccc |{Ac} [Aca]2 z ([ca][Bg][Ge] | [Af]2) z ([Af][Ge][Af] |{Bd} [GBg]2) z ([Ec][Fd][Ge] |1 %53
w: ||||
 [Af]2) z :|2 [Af]2 z2 |:!f! ([ce][df] | [eg]>)[^d^f][eg]>[df][eg]>[df] | [eg]2 z ([ec'][g=b][fa] | %58
w: |||||
 [eg]>)[^d^f][eg]>[df][eg]>[df] | [eg]2 z ([eg][=fa][eg] | [df]2) z ([d=b] [ec'][fd'] | %61
w: |||
 [ec']2) z ([eg][fa][eg] | [df]2) z ([d=b][ec'][fd'] |1 [ec']2) z2 :|2 [ec']2 z |:[K:Ab]!p! ccc | %66
w: |||||
{EAc} e2 z (edG | A2) z/ (c/e/a/ c'b/a/ |[K:Ab] g2) z/ (g/b/d'/ f'e'/d'/ | c'2) z ([Ac][Bd][=B=d] | %70
w: ||||
 [ce]2) z (e_dG | A2) z/ (f/a/c'/ f'c'/a/ | g2) z/ (g/=b/=d'/ f'd'/b/ | c'2) z ::[K:F]!mf! ccc | %75
w: |||||
{GB} [GBg]2 z ([Bg][ca][Bg] | [Af]2) z ([Af][Ge][Af] |{GB} [GBg]2) z ([Ec][Fd][Ge] | %78
w: |||
 [Af]2) z ([Af][Ge][Af] |{GB} [GBg]2) z ([db][ca][Bg] | [Af]2) z ([Af][Ge][Af] | %81
w: |||
{GB} [GBg]2) z ([Ec][Fd][Ge] | [Af]2) z ::!f! ddd | [Aa]2 z .[Aa]([Bb][Aa]) | %85
w: ||||
 [dd']2 z .[dd'].[^c^c'].[dd'] | [ee']2 z .[Aa].[=B=b].[^c^c'] | %87
w: ||
 [dd']2 z (.[dd'].[^c^c'].[=c=c']) |{/c} [cc']2 z ([db][ca][Bg] | [Af]2) z ([Af][Ge][Af] | %90
w: |||
{GB} [GBg]2) z .[Ec].[Fd].[Ge] | [Af]2 z :| %92
w: ||
V:2
 z z2 |!ped! E,2 [B,EG]2 [B,EG]2!ped-up! | B,,2 [B,DF]2 [B,DF]2 | B,,2 [B,D]2 [B,F]2 | %4
 E,,2 [G,B,E]2 [G,B,E]2 | E,2 [B,EG]2 [B,EG]2 | B,,2 [B,DF]2 [B,DF]2 | B,,2 [B,D]2 [B,F]2 | %8
 [E,B,E]2 E,, :: z z2 | A,,2 [A,CE]2 [A,CE]2 | E,,2 [G,B,E]2 [G,B,E]2 | B,,2 [B,DF]2 [B,DF]2 | %13
 E,2 [B,EG]2 [B,EG]2 | A,,2 [A,CE]2 [A,CE]2 | [E,,E,]2 [G,B,E]2 [G,B,E]2 | B,,2 [F,B,D]2 [F,B,D]2 | %17
 [E,B,E]2 E,, :: z"^con sentimento" z2 | E,2 [G,B,E]2 [G,B,E]2 | F,2 [A,B,D]2 [A,B,D]2 | %21
 B,,2 [F,B,D]2 [F,A,B,D]2 | [E,,E,]2 [G,B,E]2 [G,B,E]2 | E,2 [G,B,E]2 [G,B,E]2 | %24
 F,2 [A,B,D]2 [A,B,D]2 | B,,2 [A,B,D]2 [A,B,D]2 | [E,G,B,E]2 E,, :: %27
 .[G,,,G,,].[A,,,A,,].[=A,,,=A,,] | [B,,,B,,] z [G,B,E]2 [A,CE]2 | E,,2 [G,B,E]2 [G,B,E]2 | %30
 E,,2 [G,B,E]2 [G,B,E]2 | E,2 [G,B,E] !^![G,,,G,,]!^![A,,,A,,]!^![=A,,,=A,,] | %32
 !^![B,,,B,,] z [G,B,E]2 [A,CE]2 | E,,2 [G,B,E]2 [G,B,E]2 | B,,2 [F,B,D]2 [F,A,B,]2 | %35
 [E,G,B,]2 E,, :: z z2 | B,,2 [A,B,D]2 [A,B,D]2 | [E,,E,]2 [G,B,E]2 [G,B,E]2 | %39
 B,,2 [B,DF]2 [A,B,D]2 | E,2 [G,B,E]2 [G,B,E]2 | B,,2 [_A,B,D]2 [A,B,D]2 | E,2 [G,B,E]2 [G,B,E]2 | %43
 B,,2 [A,B,D]2 [A,B,D]2 | [E,G,B,E]2 E,, :|[K:F][M:3/4] z"^dolce" z2 | F,,2 [F,A,C]2 [C,G,B,C]2 | %47
 F,,2 [F,A,C]2 [F,C]2 | C,2 [B,CE]2 [B,CE]2 | F,2 [A,CF]2 [A,CF]2 | F,,2 [F,A,C]2 [C,G,B,C]2 | %51
 F,,2 [F,A,C]2 [F,C]2 | C,2 [G,B,C]2 [G,B,C]2 |1 [F,A,C]2 F,, :|2 [F,A,C]2 F,,2 |: z2 | %56
 C, z ([CE]2 G,2) | C, z ([CE]2 G,2) | C, z ([CE]2 G,2) | C, z ([CE]2 G,2) | G,, z ([=B,DF]2 G,2) | %61
 C, z ([CE]2 G,2) | G,, z ([=B,DF]2 G,2) |1 [CE]2 C,2 :|2 [CE]2 C, |:[K:Ab] z z2 | %66
 A,,2 [E,A,C]2 [E,B,D]2 | A,,2 [E,A,C]2 [E,B,D]2 |[K:Ab] E,,2 [E,B,D]2 [E,G,B,D]2 | A,,2 C z z2 | %70
 A,,2 [E,A,C]2 [E,B,D]2 | F,,2 [F,A,C]2 [F,A,C]2 | G,,2 [F,G,=B,]2 [F,G,B,]2 | [C,=E,G,C]2 C,, :: %74
[K:F] z z2 | C,2 [B,CE]2 [B,CE]2 | F,,2 [A,CE]2 [A,CE]2 | C,2 [B,CE]2 [B,C]2 | F,2 [A,CF]2 [F,C]2 | %79
 C,2 [B,CE]2 [B,CE]2 | F,,2 [A,CF]2 [F,C]2 | C,2 [B,CE]2 [B,CE]2 | [F,A,C]2 F,, :: z z2 | %84
 D,2 [F,A,D]2 [F,A,D]2 | D,2 [F,A,D]2 [F,A,D]2 | A,,2 [G,A,^C]2 [G,A,C]2 | D,2 [F,A,D]2 z2 | %88
 E,2 [G,B,C]2 [C,E,B,]2 | F,,2 [F,A,]2 C,2 | C,,2 [G,B,]2 C,2 | [F,A,]2 F,, :| %92
V:3
 x3 | x2 (gB)(eB) | ABA x3 | x2 (aB)(AB) | (GBG) x3 | x2 (gB)(eB) | ABA x3 | x2 (aB)(AB) | x3 :: %9
 x3 | x6 | x6 | x6 | x6 | x6 | x6 | x6 | x3 :: x3 | x6 | eBd x3 | x6 | (GBG) x3 | x6 | (eBd) x3 | %25
 x6 | x3 :: x3 | x6 | x6 | x6 | x6 | x6 | x6 | x6 | x3 :: x3 | x6 | x6 | x6 | x6 | x6 | x6 | x6 | %44
 x3 :|[K:F][M:3/4] x3 | x6 | x6 | x6 | x6 | x6 | x6 | x6 |1 x3 :|2 x4 |: x2 | x6 | x6 | x6 | x6 | %60
 x6 | x6 | x6 |1 x4 :|2 x3 |:[K:Ab] x3 | x6 | x6 |[K:Ab] x6 | x6 | x6 | x6 | x6 | x3 ::[K:F] x3 | %75
 x6 | x6 | x6 | x6 | x6 | x6 | x6 | x3 :: x3 | x6 | x6 | x6 | x6 | x6 | x6 | x6 | x3 :| %92

